svg/emoji_u1f6fc.svg

<?xml version="1.0" encoding="utf-8"?>
<!-- Generator: Adobe Illustrator 24.0.3, SVG Export Plug-In . SVG Version: 6.00 Build 0)  -->
<svg version="1.1" id="Layer_6" xmlns="http://www.w3.org/2000/svg" xmlns:xlink="http://www.w3.org/1999/xlink" x="0" y="0"
	 viewBox="0 0 128 128" style="enable-background:new 0 0 128 128;" xml:space="preserve">
<g>
	<path style="fill:#039BE5;" d="M110.78,70.71c-6.25-6.99-21.88-9.31-35.16-17.48c-3.66-2.25-11.5-8.65-12.55-12.96
		c-0.78-3.21,4.57-18.89,2.41-20.06c-3.64-1.98-8.35,2.43-8.35,2.43s-1.72-8.17-9.87-9.71c-7.3-1.38-14.38,3.2-36.18,4.22
		c-4.06,0.19-5.93,3.12-5.43,6.93c0.41,3.08,3.38,3.77,3.38,3.77s-3.13,1.94-2.86,5.38s3.6,4.19,3.6,4.19s-3.08,1.78-2.91,5.43
		c0.18,3.65,3.28,5.05,3.28,5.05s-1.45,9.95-2.26,15.25C6.36,73.2,7.24,82.52,14.77,89.52h95.79
		C115.29,85.75,116.15,76.72,110.78,70.71z"/>
	<g>
		<path style="fill:#81D4FA;" d="M36.08,13.85c2.16-0.75,4.45-1.15,6.78-1.27c2.32-0.09,4.72,0.15,6.97,1.07
			c2.27,0.85,4.26,2.67,5.45,4.78c1.22,2.11,1.9,4.42,2.37,6.7c0.43,2.3,0.67,4.59,0.9,6.85c0.11,1.13,0.22,2.26,0.35,3.37
			l0.25,1.63l0.34,1.62c1.09,4.29,3.12,8.39,5.92,11.99c-3.42-3.05-5.96-7.12-7.41-11.57l-0.48-1.69l-0.35-1.73
			c-0.19-1.14-0.35-2.28-0.5-3.41c-0.29-2.26-0.54-4.51-0.98-6.68c-0.81-4.29-2.5-8.66-6.49-10.44c-1.93-0.92-4.13-1.37-6.35-1.51
			C40.61,13.41,38.34,13.53,36.08,13.85z"/>
	</g>
	<g>
		<circle style="fill:#EEEEEE;" cx="53.46" cy="40.22" r="3.34"/>
		<circle style="fill:#EEEEEE;" cx="58.93" cy="50.29" r="3.34"/>
		<circle style="fill:#EEEEEE;" cx="66.21" cy="57.25" r="3.34"/>
		<circle style="fill:#EEEEEE;" cx="75.57" cy="62.7" r="3.34"/>
		<circle style="fill:#EEEEEE;" cx="86.35" cy="67.09" r="3.34"/>
		
			<line style="fill:none;stroke:#F6BF26;stroke-width:3;stroke-linecap:round;stroke-miterlimit:10;" x1="53.46" y1="40.22" x2="62.67" y2="38.15"/>
		
			<line style="fill:none;stroke:#F6BF26;stroke-width:3;stroke-linecap:round;stroke-miterlimit:10;" x1="59.28" y1="50.06" x2="66.21" y2="45.31"/>
		
			<line style="fill:none;stroke:#F6BF26;stroke-width:3;stroke-linecap:round;stroke-miterlimit:10;" x1="66.21" y1="57.25" x2="72.02" y2="51.1"/>
		
			<line style="fill:none;stroke:#F6BF26;stroke-width:3;stroke-linecap:round;stroke-miterlimit:10;" x1="75.27" y1="62.7" x2="79.66" y2="55.52"/>
		
			<line style="fill:none;stroke:#F6BF26;stroke-width:3;stroke-linecap:round;stroke-miterlimit:10;" x1="86.35" y1="67.09" x2="89.03" y2="59.75"/>
	</g>
	<path style="fill:none;stroke:#F6BF26;stroke-width:3;stroke-linecap:round;stroke-miterlimit:10;" d="M62.88,36.71
		C36.08,37.5,47.78,15.08,62.88,36.71c2.83,4.06,6.41,5.53,8.22,6.05c9.05,2.64,13.43-15.51-11.08-4.79"/>
	<g>
		<g>
			<path style="fill:#F6BF26;" d="M29.13,55.28c-6.96-1.32-13.98-2.86-19.3-5.22c-0.47,3.23-1.37,9.33-1.94,13.09
				c-0.64,4.2-0.85,8.27-0.33,12.1c14.29,4.88,36.25-9.77,45.92,14.26h8.79C59.58,64.15,47.83,58.83,29.13,55.28z"/>
		</g>
		<path style="fill:#F4511E;" d="M27.15,60.68c-6.58-0.63-13.17-1.61-18.36-3.61c-0.32,2.19-0.65,4.38-0.91,6.08
			c-0.64,4.2-0.85,8.27-0.33,12.1c14.29,4.88,36.25-9.77,45.92,14.26h6.38C56.46,66.77,40.32,61.94,27.15,60.68z"/>
		<path style="fill:#9CCC65;" d="M21.38,67.89c-4.75,0.21-9.77,0.01-13.87-1.74c-0.32,3.14-0.35,6.19,0.04,9.11
			c14.29,4.88,36.25-9.77,45.92,14.26h2.61C52.5,69.17,34.27,67.32,21.38,67.89z"/>
	</g>
	<path style="fill:#616161;" d="M108.61,104.5l5.65-4.45l-3.48-7.31l1.71-5.35c0,0-87.55-1.04-92.1-1.43
		c-2.9-0.25-6.07-0.87-6.07-0.87c-2.26-0.47-3.85-0.94-3.85-0.94l9.62,20.05l5.43-1.98l-4.2-9.48h12.71l-2.36,7.32
		c-0.54,1.67,0.38,3.46,2.05,4l6.6,2.13c1.67,0.54,3.46-0.38,4-2.05L48,92.74h17.6l3.68,11.41c0.54,1.67,2.33,2.59,4,2.05l6.6-2.13
		c1.67-0.54,2.59-2.33,2.05-4l-2.36-7.32h13.85l-5.33,9.48l6.2,1.98l6.06-11.46L108.61,104.5z"/>
	<g>
		<g>
			<radialGradient id="SVGID_1_" cx="28.1583" cy="109.5525" r="15.1782" gradientUnits="userSpaceOnUse">
				<stop  offset="0.703" style="stop-color:#FFD740"/>
				<stop  offset="0.9986" style="stop-color:#F6BF26"/>
			</radialGradient>
			<circle style="fill:url(#SVGID_1_);" cx="28.16" cy="109.55" r="14.44"/>
		</g>
		<g style="opacity:0.76;">
			<linearGradient id="SVGID_2_" gradientUnits="userSpaceOnUse" x1="28.1583" y1="114.5476" x2="28.1583" y2="101.8665">
				<stop  offset="0" style="stop-color:#BF360C;stop-opacity:0"/>
				<stop  offset="1" style="stop-color:#BF360C"/>
			</linearGradient>
			<circle style="fill:url(#SVGID_2_);" cx="28.16" cy="109.55" r="6.96"/>
		</g>
		<circle style="fill:#757575;" cx="28.16" cy="109.55" r="3.62"/>
	</g>
	<linearGradient id="SVGID_3_" gradientUnits="userSpaceOnUse" x1="105.536" y1="105.5648" x2="121.9002" y2="92.5613">
		<stop  offset="0.2394" style="stop-color:#757575"/>
		<stop  offset="0.8222" style="stop-color:#9D9D9D"/>
	</linearGradient>
	<path style="fill:url(#SVGID_3_);" d="M103.55,95.9l5.35-3.87c1.38-1,3.28-0.89,4.53,0.27l8.04,7.43c1.39,1.29,1.26,3.53-0.28,4.64
		l-9.76,7.06c-1.54,1.11-3.71,0.54-4.49-1.19l-4.54-9.96C101.68,98.74,102.17,96.9,103.55,95.9z"/>
	<g>
		<g>
			<radialGradient id="SVGID_4_" cx="85.445" cy="109.5525" r="15.1782" gradientUnits="userSpaceOnUse">
				<stop  offset="0.703" style="stop-color:#FFD740"/>
				<stop  offset="0.9986" style="stop-color:#F6BF26"/>
			</radialGradient>
			<circle style="fill:url(#SVGID_4_);" cx="85.45" cy="109.55" r="14.44"/>
		</g>
		<g style="opacity:0.76;">
			<linearGradient id="SVGID_5_" gradientUnits="userSpaceOnUse" x1="85.445" y1="114.5476" x2="85.445" y2="101.8665">
				<stop  offset="0" style="stop-color:#BF360C;stop-opacity:0"/>
				<stop  offset="1" style="stop-color:#BF360C"/>
			</linearGradient>
			<circle style="fill:url(#SVGID_5_);" cx="85.45" cy="109.55" r="6.96"/>
		</g>
		<circle style="fill:#757575;" cx="85.45" cy="109.55" r="3.62"/>
	</g>
	<g style="opacity:0.57;">
		<g>
			<path style="fill:#01579B;" d="M13.67,30.68c8.51,0,18.2-1.36,27.5-3.9c0.8-0.22,1.27-1.04,1.05-1.84
				c-0.22-0.8-1.05-1.27-1.84-1.05C21.1,29.15,9.03,27.86,9.03,27.86s-1.38,0.86-2.23,2.45C6.91,30.34,11.4,30.68,13.67,30.68z"/>
		</g>
		<g>
			<path style="fill:#01579B;" d="M15.15,40.58c8.85,0,18.93-1.47,28.57-4.22c0.8-0.23,1.26-1.06,1.03-1.85
				c-0.23-0.8-1.06-1.24-1.85-1.03c-18.93,5.04-33.13,3.95-33.13,3.95s-1.33,0.77-2.19,2.34C7.82,40.05,11.09,40.58,15.15,40.58z"/>
		</g>
		<g>
			<path style="fill:#01579B;" d="M45.26,46.09c0.79-0.24,1.25-1.07,1.01-1.87c-0.24-0.79-1.09-1.3-1.87-1.01
				c-14.51,5.47-34.26,4.7-34.26,4.7L9.84,50c0,0,4.45,0.65,7.17,0.6C26.53,50.41,35.27,49.05,45.26,46.09z"/>
		</g>
	</g>
</g>
</svg>

<?xml version="1.0" encoding="UTF-8" standalone="no"?>
<!DOCTYPE svg PUBLIC "-//W3C//DTD SVG 1.1//EN" "http://www.w3.org/Graphics/SVG/1.1/DTD/svg11.dtd">
<svg width="100%" height="100%" viewBox="0 0 128 128" version="1.1" xmlns="http://www.w3.org/2000/svg" xmlns:xlink="http://www.w3.org/1999/xlink" xml:space="preserve" xmlns:serif="http://www.serif.com/" style="fill-rule:evenodd;clip-rule:evenodd;stroke-linecap:round;stroke-miterlimit:10;">
    <g>
        <path d="M110.78,70.71C104.53,63.72 88.9,61.4 75.62,53.23C71.96,50.98 64.12,44.58 63.07,40.27C62.29,37.06 67.64,21.38 65.48,20.21C61.84,18.23 57.13,22.64 57.13,22.64C57.13,22.64 55.41,14.47 47.26,12.93C39.96,11.55 32.88,16.13 11.08,17.15C7.02,17.34 5.15,20.27 5.65,24.08C6.06,27.16 9.03,27.85 9.03,27.85C9.03,27.85 5.9,29.79 6.17,33.23C6.44,36.67 9.77,37.42 9.77,37.42C9.77,37.42 6.69,39.2 6.86,42.85C7.04,46.5 10.14,47.9 10.14,47.9C10.14,47.9 8.69,57.85 7.88,63.15C6.36,73.2 7.24,82.52 14.77,89.52L110.56,89.52C115.29,85.75 116.15,76.72 110.78,70.71Z" style="fill:rgb(66,173,231);fill-rule:nonzero;"/>
        <g>
            <circle cx="53.46" cy="40.22" r="3.34" style="fill:rgb(238,238,238);"/>
            <circle cx="58.93" cy="50.29" r="3.34" style="fill:rgb(238,238,238);"/>
            <circle cx="66.21" cy="57.25" r="3.34" style="fill:rgb(238,238,238);"/>
            <circle cx="75.57" cy="62.7" r="3.34" style="fill:rgb(238,238,238);"/>
            <circle cx="86.35" cy="67.09" r="3.34" style="fill:rgb(238,238,238);"/>
            <path d="M53.46,40.22L62.67,38.15" style="fill:none;fill-rule:nonzero;stroke:rgb(252,194,27);stroke-width:3px;"/>
            <path d="M59.28,50.06L66.21,45.31" style="fill:none;fill-rule:nonzero;stroke:rgb(252,194,27);stroke-width:3px;"/>
            <path d="M66.21,57.25L72.02,51.1" style="fill:none;fill-rule:nonzero;stroke:rgb(252,194,27);stroke-width:3px;"/>
            <path d="M75.27,62.7L79.66,55.52" style="fill:none;fill-rule:nonzero;stroke:rgb(252,194,27);stroke-width:3px;"/>
            <path d="M86.35,67.09L89.03,59.75" style="fill:none;fill-rule:nonzero;stroke:rgb(252,194,27);stroke-width:3px;"/>
        </g>
        <path d="M62.88,36.71C36.08,37.5 47.78,15.08 62.88,36.71C65.71,40.77 69.29,42.24 71.1,42.76C80.15,45.4 84.53,27.25 60.02,37.97" style="fill:none;fill-rule:nonzero;stroke:rgb(252,194,27);stroke-width:3px;"/>
        <path d="M108.61,104.5L114.26,100.05L110.78,92.74L112.49,87.39C112.49,87.39 24.94,86.35 20.39,85.96C17.49,85.71 14.32,85.09 14.32,85.09C12.06,84.62 10.47,84.15 10.47,84.15L20.09,104.2L25.52,102.22L21.32,92.74L34.03,92.74L31.67,100.06C31.13,101.73 32.05,103.52 33.72,104.06L40.32,106.19C41.99,106.73 43.78,105.81 44.32,104.14L48,92.74L65.6,92.74L69.28,104.15C69.82,105.82 71.61,106.74 73.28,106.2L79.88,104.07C81.55,103.53 82.47,101.74 81.93,100.07L79.57,92.75L93.42,92.75L88.09,102.23L94.29,104.21L100.35,92.75L108.61,104.5Z" style="fill:rgb(66,66,66);fill-rule:nonzero;"/>
        <g>
            <g>
                <circle cx="28.16" cy="109.55" r="14.44" style="fill:rgb(252,194,27);"/>
            </g>
            <circle cx="28.16" cy="109.55" r="3.62" style="fill:rgb(66,66,66);"/>
        </g>
        <path d="M103.55,95.9L108.9,92.03C110.28,91.03 112.18,91.14 113.43,92.3L121.47,99.73C122.86,101.02 122.73,103.26 121.19,104.37L111.43,111.43C109.89,112.54 107.72,111.97 106.94,110.24L102.4,100.28C101.68,98.74 102.17,96.9 103.55,95.9Z" style="fill:rgb(158,158,158);fill-rule:nonzero;"/>
        <g>
            <g>
                <circle cx="85.45" cy="109.55" r="14.44" style="fill:rgb(252,194,27);"/>
            </g>
            <circle cx="85.45" cy="109.55" r="3.62" style="fill:rgb(66,66,66);"/>
        </g>
    </g>
</svg>
